assets/icons/qvision/phonelink.svg

<svg xmlns="http://www.w3.org/2000/svg" height="24" viewBox="0 0 24 24" width="24"><path d="M0 0h24v24H0z" fill="none"/><path d="M4 6h18V4H4c-1.1 0-2 .9-2 2v11H0v3h14v-3H4V6zm19 2h-6c-.55 0-1 .45-1 1v10c0 .55.45 1 1 1h6c.55 0 1-.45 1-1V9c0-.55-.45-1-1-1zm-1 9h-4v-7h4v7z"/></svg>

<svg width="24" height="24" viewBox="0 0 24 24" fill="none" xmlns="http://www.w3.org/2000/svg">
<g clip-path="url(#clip0_147_3031)">
<path d="M4 6H22V4H4C2.9 4 2 4.9 2 6V17H0V20H14V17H4V6ZM23 8H17C16.45 8 16 8.45 16 9V19C16 19.55 16.45 20 17 20H23C23.55 20 24 19.55 24 19V9C24 8.45 23.55 8 23 8ZM22 17H18V10H22V17Z" fill="#323232"/>
</g>
<defs>
<clipPath id="clip0_147_3031">
<rect width="24" height="24" fill="white"/>
</clipPath>
</defs>
</svg>
